X:1438
L:1/16
M:2/4
K:D
"D" d2d2 dcBA |"A7" c2c2 B2GA | c2c2 cBAG |"D" B2B2 A2Ac | d2Ad fAdf |1"A7" gAce a2Ac | e2Ac gAce | 
"D" fAdf a2Ac :|2"G" a2g2 B2>g2 |"D" fAdf"A7" eAce |"D" d2f2 d2 z2 ::[K:A]"^tr""A7" e2cA E2ee | 
"^tr""E7" e2de g2f2 |"^tr" e2^de ge=dG |"A" Acea ceAc | e2cA E2ee |"^tr""E7" e2de g2>f2 | 
"^tr" e2de gedG |"A" A2ce"_>Teil A" .a4 ::[K:G]"G" BBB2 Bed2 |"C" ccc2 cfe2 |"D7" d2dd b2>a2 | 
"G" a2g2 fedc | BBB2 Bed2 |"C" ccc2 cfe2 |"D7" ddd2 fdef |"G" g2dB .G4 :|

